X:3020
T:My bonnie is over the ocean
C:H. J. Fuller
O:Scotland
R:Waltz
Z:Transcribed by Frank Nordberg - http://www.musicaviva.com
F:http://abc.musicaviva.com/tunes/fuller-h-j/fuller-bonnie-g/fuller-bonnie-g-1.abc
M:3/4
L:1/4
K:G
D|"G"BAG|"C"AGE|"G"DB,2-|"G"B, z D|
"G"BAG|"A7"GFG|"Am7"A3-|"D7"A z D|
"G"BAG|"C"AGE|"G"DB,2-|"G"B, z G|
"Am"EAG|"D7"FEF|"G"G3-"G"G3|
"G"D3|"G7"G3|"Am/C"E3|"Am/C"A2G|
"D"FFF|"D7"FEF|"G"G2A|"G"B3|
"G"D3|"G7"G3|"Am/C"E3|"Am/C"A2G|
"D"FFF|"D7"FEF|"G"G3-|"G"G2|]
W:
W:
W:  From Musica Viva - http://www.musicaviva.com
W:  the Internet center for free sheet music downloads.
